build/img/icons/fill-star.svg

<svg width="18" height="17" viewBox="0 0 18 17" fill="none" xmlns="http://www.w3.org/2000/svg">
<path d="M16.7991 5.50113L12.0941 5.0589C11.7975 5.0321 11.5413 4.84448 11.42 4.56306L9.73482 0.50254C9.46519 -0.167513 8.50801 -0.167513 8.23839 0.50254L6.5667 4.56306C6.45884 4.84448 6.18922 5.0321 5.89263 5.0589L1.18763 5.50113C0.486599 5.56814 0.20349 6.43921 0.729264 6.90825L4.27486 10.0039C4.50405 10.2049 4.59842 10.4997 4.53101 10.7946L3.46598 15.1365C3.3042 15.8199 4.04568 16.3828 4.66582 16.021L8.5889 13.7294C8.84505 13.582 9.15512 13.582 9.41126 13.7294L13.3343 16.021C13.9545 16.3828 14.696 15.8334 14.5342 15.1365L13.4826 10.7946C13.4152 10.4997 13.5096 10.2049 13.7388 10.0039L17.2844 6.90825C17.7967 6.43921 17.5001 5.56814 16.7991 5.50113Z" fill="#FC9B09"/>
</svg>

<svg width="18" height="17" fill="none" xmlns="http://www.w3.org/2000/svg"><path d="M16.8 5.501l-4.706-.442a.813.813 0 01-.674-.496L9.735.503c-.27-.67-1.227-.67-1.497 0l-1.671 4.06a.796.796 0 01-.674.496L1.188 5.5a.808.808 0 00-.459 1.407l3.546 3.096c.229.2.323.496.256.79l-1.065 4.342c-.162.684.58 1.247 1.2.885l3.923-2.292a.82.82 0 01.822 0l3.923 2.292a.81.81 0 001.2-.885l-1.051-4.341a.799.799 0 01.256-.791l3.545-3.096c.513-.469.216-1.34-.485-1.407z" fill="#FC9B09"/></svg>
